X:123 
T:Ladies' Pantalettes (reel), The 
B:CRE3.161 (DrÃÂÃÂÃÂÃÂ¡irinÃÂÃÂÃÂÃÂ­ na MnÃÂÃÂÃÂÃÂ¡ Uaisle) (= "bloomers")
F:file ID: cre.3/123ladies
R:reel
L:1/8
Q:180
M:C
K:G
BdcA G3B|AFF2 dFF2|BdcA G2g2|fdcA AGG2:|
(3efg af g2g2|fgag fdde|fg (3agf gaag|fdcA BGG2|
(3efg af g2z2|a3g fdde|f3g a3g|fdcA AGG2||

%%%

